X:202
T:Tom Barrett's Polka
T:Patrick O'Connor's No. 1
Z:Jack Campin, http://www.campin.me.uk/
F:Jack Campin's Nine-Note Tunebook
% last edit 03-02-2013
M:2/4
L:1/8
Q:1/4=124
K:DDor % usually A dorian
DD/D/ AD   |AD A2|GE cE|EC c2 |
DD/D/ AD   |AD A2|GE cE|D2 D2:|
dc    AB/c/|dc A2|GE cE|GE c2 |
dc    AB/c/|dc A2|GE cE|D2 D2:|

